img/image/features1.svg

<svg width="18" height="22" viewBox="0 0 18 22" fill="none" xmlns="http://www.w3.org/2000/svg">
<path d="M7.25154 16.8752L4.82365 20.4255C4.47845 20.9302 3.69005 20.7151 3.64904 20.105L3.60552 19.4572C3.58603 19.1673 3.30048 18.972 3.02325 19.059L2.4038 19.2533C1.82033 19.4364 1.33392 18.7798 1.67911 18.275L3.89892 15.0291M14.854 16.1295L14.1203 15.0566M10.7676 16.9028L13.1767 20.4255C13.5219 20.9302 14.3103 20.7151 14.3513 20.105L14.3948 19.4572C14.4143 19.1673 14.6999 18.972 14.9771 19.059L15.5965 19.2533C16.18 19.4364 16.6664 18.7798 16.3212 18.275L15.4546 17.0078" stroke="#333333" stroke-miterlimit="10" stroke-linecap="round" stroke-linejoin="round"/>
<path d="M9.89107 1.7364C10.497 0.938197 11.7661 1.27824 11.8918 2.27249C11.9847 3.00699 12.7526 3.45031 13.4351 3.16347C14.359 2.77519 15.288 3.70425 14.8997 4.62812C14.6129 5.31062 15.0562 6.07847 15.7907 6.17132C16.7849 6.29699 17.125 7.56613 16.3268 8.1721C15.7371 8.61976 15.7371 9.5064 16.3268 9.95406C17.125 10.56 16.7849 11.8291 15.7907 11.9548C15.0562 12.0477 14.6129 12.8155 14.8997 13.498C15.288 14.4219 14.3589 15.351 13.4351 14.9627C12.7526 14.6759 11.9847 15.1192 11.8918 15.8537C11.7662 16.8479 10.497 17.188 9.89107 16.3898C9.44341 15.8001 8.55677 15.8001 8.10912 16.3898C7.50314 17.188 6.23404 16.8479 6.10833 15.8537C6.01548 15.1192 5.24763 14.6759 4.56513 14.9627C3.64122 15.351 2.7122 14.4219 3.10048 13.498C3.38732 12.8155 2.944 12.0477 2.20951 11.9548C1.21525 11.8292 0.875209 10.56 1.67341 9.95406C2.26306 9.5064 2.26306 8.61976 1.67341 8.1721C0.875209 7.56613 1.21525 6.29703 2.20951 6.17132C2.944 6.07847 3.38732 5.31062 3.10048 4.62812C2.7122 3.70421 3.64126 2.77519 4.56513 3.16347C5.24763 3.45031 6.01548 3.00699 6.10833 2.27249C6.234 1.27824 7.50314 0.938197 8.10912 1.7364C8.55677 2.32605 9.44341 2.32605 9.89107 1.7364Z" stroke="#333333" stroke-miterlimit="10" stroke-linecap="round" stroke-linejoin="round"/>
<path d="M11.9257 5.12315C13.1282 6.01753 13.9071 7.4494 13.9071 9.06319C13.9071 11.7733 11.7101 13.9704 8.99996 13.9704C6.2898 13.9704 4.09277 11.7733 4.09277 9.06319C4.09277 6.35304 6.2898 4.15601 8.99996 4.15601C9.6775 4.15601 10.323 4.29331 10.9101 4.54163" stroke="#333333" stroke-miterlimit="10" stroke-linecap="round" stroke-linejoin="round"/>
<path d="M8.73212 11.337L7.80384 11.825C7.38146 12.0471 6.88782 11.6884 6.96849 11.2181L7.14579 10.1844C7.17782 9.99769 7.11591 9.8071 6.98021 9.67483L6.22919 8.9428C5.88747 8.60972 6.07603 8.0294 6.54825 7.96081L7.5861 7.80999C7.67848 7.79656 7.7662 7.76087 7.84171 7.70601C7.91723 7.65114 7.97827 7.57873 8.01958 7.49503L8.48372 6.55456C8.69489 6.12667 9.30509 6.12667 9.51626 6.55456L9.9804 7.49503C10.0217 7.57873 10.0828 7.65114 10.1583 7.70601C10.2338 7.76087 10.3215 7.79656 10.4139 7.80999L11.4517 7.96081C11.924 8.02944 12.1125 8.60976 11.7708 8.9428L11.0198 9.67483C10.9529 9.73999 10.9029 9.82042 10.8741 9.9092C10.8452 9.99798 10.8384 10.0924 10.8542 10.1844L11.0315 11.2181C11.1122 11.6884 10.6185 12.0471 10.1961 11.825L9.26786 11.337C9.18525 11.2936 9.09332 11.2709 8.99999 11.2709C8.90666 11.2709 8.81473 11.2936 8.73212 11.337Z" stroke="#333333" stroke-miterlimit="10" stroke-linecap="round" stroke-linejoin="round"/>
</svg>

<svg width="18" height="22" fill="none" xmlns="http://www.w3.org/2000/svg"><path d="m7.252 16.875-2.428 3.55c-.346.505-1.134.29-1.175-.32l-.043-.648a.449.449 0 0 0-.583-.398l-.62.194c-.583.183-1.07-.473-.724-.978l2.22-3.246m10.955 1.1-.734-1.072m-3.352 1.846 2.409 3.523c.345.504 1.133.29 1.174-.321l.044-.648a.449.449 0 0 1 .582-.398l.62.194c.583.183 1.07-.473.724-.978l-.866-1.267" stroke="#333" stroke-miterlimit="10" stroke-linecap="round" stroke-linejoin="round"/><path d="M9.891 1.736c.606-.798 1.875-.458 2 .536.094.735.862 1.178 1.544.891.924-.388 1.853.541 1.465 1.465-.287.683.156 1.45.89 1.543.995.126 1.335 1.395.537 2.001a1.119 1.119 0 0 0 0 1.782c.798.606.458 1.875-.536 2a1.119 1.119 0 0 0-.891 1.544c.388.924-.541 1.853-1.465 1.465a1.119 1.119 0 0 0-1.543.89c-.126.995-1.395 1.335-2 .537a1.119 1.119 0 0 0-1.783 0c-.606.798-1.875.458-2-.536a1.119 1.119 0 0 0-1.544-.891c-.924.388-1.853-.541-1.465-1.465a1.119 1.119 0 0 0-.89-1.543c-.995-.126-1.335-1.395-.537-2 .59-.449.59-1.335 0-1.783-.798-.606-.458-1.875.537-2a1.119 1.119 0 0 0 .89-1.544c-.388-.924.541-1.853 1.465-1.465a1.119 1.119 0 0 0 1.543-.89c.126-.995 1.395-1.335 2.001-.537.448.59 1.334.59 1.782 0Z" stroke="#333" stroke-miterlimit="10" stroke-linecap="round" stroke-linejoin="round"/><path d="M11.926 5.123a4.907 4.907 0 1 1-1.016-.582" stroke="#333" stroke-miterlimit="10" stroke-linecap="round" stroke-linejoin="round"/><path d="m8.732 11.337-.928.488a.576.576 0 0 1-.836-.607l.178-1.034a.576.576 0 0 0-.166-.51l-.75-.731a.576.576 0 0 1 .318-.982l1.038-.151a.576.576 0 0 0 .434-.315l.464-.94a.576.576 0 0 1 1.032 0l.464.94a.576.576 0 0 0 .434.315l1.038.15c.472.07.66.65.319.983l-.751.732a.575.575 0 0 0-.166.51l.178 1.033a.576.576 0 0 1-.836.607l-.928-.488a.576.576 0 0 0-.536 0Z" stroke="#333" stroke-miterlimit="10" stroke-linecap="round" stroke-linejoin="round"/></svg>
